!!!OTL: ES KAMEN ZWEI GEGANGEN
!!!ARE: Europa, Mitteleuropa, Deutschland, Hessen, Kreis Limburg, Heringen
!!!SCT: E0869A
!!!YEM: Copyright 1995, estate of Helmut Schaffrath.
**kern
*ICvox
*Ivox
*M4/4
*k[f#]
*G:
{4d
=1
4g
4g
8b
8a
4g
=2
2a
8cc
8b}
{4a
=3
4b
4dd
8dd
8cc
4b
=4
2a
4r}
{4d
=5
2a
8cc
8b
4a
=6
4.dd
8cc
8b
8a}
{4g
=7
2a
4dd
8dd
8cc
=8
2b
4r}
{4d
=9
2a
8cc
8b
4a
=10
4.dd
8cc
8b
8a}
{4g
=11
2a
4dd
8dd
8cc
=12
2b
4r}
==
!!!AGN: Hochzeits -, Ehestands - Lied
!!!ONB: ESAC (Essen Associative Code) Database: ERK2
!!!AMT: simple quadruple
!!!AIN: vox
!!!EED: Helmut Schaffrath
!!!EEV: 1.0
*-
